svgs/icons/sm/globe.svg

<svg xmlns="http://www.w3.org/2000/svg" viewBox="0 0 16 16" enable-background="new 0 0 16 16"><path fill="#34363D" d="M8 0c-4.4 0-8 3.6-8 8s3.6 8 8 8 8-3.6 8-8-3.6-8-8-8zm5.9 7h-2.9c-.1-1.8-.4-3.4-.8-4.6 1.9.8 3.4 2.5 3.7 4.6zm-6.9 2h2c-.1 2.2-.6 3.7-1 4.5-.4-.8-.9-2.3-1-4.5zm0-2c.1-2.2.6-3.7 1-4.5.4.8.9 2.3 1 4.5h-2zm-1.1-4.6c-.5 1.2-.8 2.8-.9 4.6h-2.9c.3-2.1 1.8-3.8 3.8-4.6zm-3.8 6.6h2.9c.1 1.8.4 3.4.8 4.6-1.9-.8-3.4-2.5-3.7-4.6zm8 4.6c.4-1.2.7-2.8.8-4.6h2.9c-.2 2.1-1.7 3.8-3.7 4.6z"/></svg>

<svg xmlns="http://www.w3.org/2000/svg" viewBox="0 0 16 16"><path fill="#34363D" d="M8 0C3.6 0 0 3.6 0 8s3.6 8 8 8 8-3.6 8-8-3.6-8-8-8zm5.9 7H11c-.1-1.8-.4-3.4-.8-4.6 1.9.8 3.4 2.5 3.7 4.6zM7 9h2c-.1 2.2-.6 3.7-1 4.5-.4-.8-.9-2.3-1-4.5zm0-2c.1-2.2.6-3.7 1-4.5.4.8.9 2.3 1 4.5H7zM5.9 2.4C5.4 3.6 5.1 5.2 5 7H2.1c.3-2.1 1.8-3.8 3.8-4.6zM2.1 9H5c.1 1.8.4 3.4.8 4.6-1.9-.8-3.4-2.5-3.7-4.6zm8 4.6c.4-1.2.7-2.8.8-4.6h2.9c-.2 2.1-1.7 3.8-3.7 4.6z"/></svg>
